X:3470
L:1/8
M:4/4
K:Ador
 e/d/ |O cAAc A2 GE | GEDE G2 EG | AGAB cBcd |1 efge dfed :|2 efge d2 d2 || eaab a2 ge | 
 geae gede | cBcd efge |1 agfe d2 d2 :|2 agfe dfed ||

